apex/img/circle-icon.svg

<svg width="29" height="29" viewBox="0 0 29 29" fill="none" xmlns="http://www.w3.org/2000/svg">
<g clip-path="url(#clip0)">
<path d="M25.0961 21.4711C24.2695 21.4711 23.4963 21.0645 23.0281 20.3833L21.8 18.597C20.3534 21.1908 17.6033 22.8654 14.5 22.8654C10.1697 22.8654 6.5973 19.5578 6.17613 15.3366H6.97119C7.28181 15.3366 7.56693 15.1645 7.71154 14.8895C7.85614 14.6145 7.83649 14.282 7.6605 14.0261L6.44103 12.2523L4.59319 9.56452C4.43721 9.33756 4.17938 9.2019 3.90388 9.2019C3.86944 9.2019 3.83529 9.204 3.80153 9.20813C3.76777 9.21227 3.73452 9.2185 3.70184 9.2266C3.62017 9.24693 3.54223 9.27939 3.47069 9.32272C3.37055 9.38332 3.28276 9.46517 3.21451 9.56446L0.147196 14.026C-0.0287862 14.282 -0.0484404 14.6145 0.0961628 14.8894C0.240766 15.1643 0.525894 15.3366 0.836568 15.3366H1.69977C1.8988 18.4479 3.20567 21.3456 5.43006 23.5701C7.85274 25.9928 11.0738 27.327 14.5 27.327C17.9262 27.327 21.1473 25.9928 23.57 23.5701C24.214 22.926 24.7843 22.2195 25.274 21.4643C25.215 21.4684 25.1557 21.4711 25.0961 21.4711Z" fill="white"/>
<path d="M15.1374 13.6634H13.8627C13.6211 13.6634 13.4246 13.4668 13.4246 13.2252V12.5878C13.4246 12.3462 13.6211 12.1497 13.8627 12.1497H15.1374C15.3791 12.1497 15.5756 12.3462 15.5756 12.5878C15.5756 13.0498 15.9502 13.4243 16.4121 13.4243C16.8741 13.4243 17.2486 13.0498 17.2486 12.5878C17.2486 11.4909 16.4076 10.587 15.3365 10.4863V10.0384C15.3365 9.57641 14.962 9.2019 14.5 9.2019C14.038 9.2019 13.6635 9.57647 13.6635 10.0384V10.4863C12.5924 10.587 11.7513 11.4909 11.7513 12.5878V13.2252C11.7513 14.3894 12.6984 15.3365 13.8626 15.3365H15.1373C15.3789 15.3365 15.5755 15.533 15.5755 15.7746V16.412C15.5755 16.6536 15.3789 16.8502 15.1373 16.8502H13.8626C13.621 16.8502 13.4244 16.6536 13.4244 16.4121C13.4244 15.9501 13.0499 15.5755 12.5879 15.5755C12.126 15.5755 11.7514 15.9501 11.7514 16.4121C11.7514 17.509 12.5924 18.4129 13.6635 18.5136V18.9614C13.6635 19.4234 14.0381 19.7979 14.5001 19.7979C14.9621 19.7979 15.3366 19.4234 15.3366 18.9614V18.5135C16.4076 18.4128 17.2487 17.5089 17.2487 16.412V15.7746C17.2486 14.6104 16.3016 13.6634 15.1374 13.6634Z" fill="white"/>
<path d="M28.9039 14.1106C28.7592 13.8356 28.4741 13.6634 28.1635 13.6634H27.3003C27.1012 10.5521 25.7944 7.65439 23.57 5.42995C21.1473 3.00732 17.9262 1.6731 14.5001 1.6731C11.0739 1.6731 7.85273 3.00732 5.4301 5.43C4.78605 6.07406 4.21573 6.7806 3.72607 7.53579C3.78504 7.5316 3.84428 7.52888 3.90393 7.52888C4.73059 7.52888 5.50368 7.93556 5.97193 8.61671L7.20001 10.403C8.64666 7.80919 11.3967 6.13467 14.5 6.13467C18.8303 6.13467 22.4027 9.44225 22.8239 13.6635H22.0288C21.7182 13.6635 21.4331 13.8356 21.2885 14.1106C21.1439 14.3856 21.1635 14.718 21.3395 14.974L22.559 16.7477L24.4068 19.4356C24.4459 19.4923 24.4912 19.5434 24.5416 19.588C24.6929 19.7219 24.8896 19.7982 25.0962 19.7982C25.3716 19.7982 25.6295 19.6625 25.7856 19.4356L26.8931 17.8245L28.8528 14.974C29.0289 14.7179 29.0485 14.3854 28.9039 14.1106Z" fill="white"/>
</g>
<defs>
<clipPath id="clip0">
<rect width="29" height="29" fill="white"/>
</clipPath>
</defs>
</svg>

<svg width="29" height="29" fill="none" xmlns="http://www.w3.org/2000/svg"><g clip-path="url(#clip0)" fill="#fff"><path d="M25.096 21.471a2.51 2.51 0 01-2.068-1.088L21.8 18.597a8.327 8.327 0 01-7.3 4.268c-4.33 0-7.903-3.307-8.324-7.528h.795a.836.836 0 00.69-1.31l-1.22-1.775-1.848-2.687a.836.836 0 00-1.378 0l-3.068 4.46a.837.837 0 00.69 1.31H1.7a12.734 12.734 0 003.73 8.234 12.743 12.743 0 009.07 3.757c3.426 0 6.647-1.334 9.07-3.757a12.92 12.92 0 001.704-2.106 2.565 2.565 0 01-.178.007z"/><path d="M15.137 13.663h-1.274a.439.439 0 01-.438-.438v-.637c0-.242.196-.438.438-.438h1.274c.242 0 .439.196.439.438a.837.837 0 001.673 0 2.114 2.114 0 00-1.912-2.102v-.448a.836.836 0 10-1.673 0v.448a2.114 2.114 0 00-1.913 2.102v.637c0 1.164.947 2.111 2.112 2.111h1.274c.242 0 .438.197.438.439v.637a.439.439 0 01-.438.438h-1.274a.439.439 0 01-.439-.438.837.837 0 10-1.673 0c0 1.097.841 2 1.913 2.102v.447a.837.837 0 001.673 0v-.447a2.114 2.114 0 001.912-2.102v-.637a2.114 2.114 0 00-2.112-2.112z"/><path d="M28.904 14.11a.837.837 0 00-.74-.447H27.3a12.734 12.734 0 00-3.73-8.233 12.743 12.743 0 00-9.07-3.757A12.743 12.743 0 005.43 5.43a12.914 12.914 0 00-1.704 2.106 2.509 2.509 0 012.246 1.08L7.2 10.404a8.327 8.327 0 017.3-4.268c4.33 0 7.903 3.307 8.324 7.529h-.795a.836.836 0 00-.69 1.31l1.22 1.774 1.848 2.688a.84.84 0 00.69.362.837.837 0 00.689-.362l1.107-1.611 1.96-2.851a.836.836 0 00.05-.863z"/></g><defs><clipPath id="clip0"><path fill="#fff" d="M0 0h29v29H0z"/></clipPath></defs></svg>
